packages/core/src/svgs/pro.svg

<svg width="24" height="24" viewBox="0 0 24 24" fill="none" xmlns="http://www.w3.org/2000/svg">
<g clip-path="url(#clip0_31_16473)">
<path d="M0 0H24V24H0V0Z" fill="#38A6FA"/>
<path d="M16.7144 15.8235C16.7144 16.0729 16.4752 16.2855 16.2254 16.2855H9.22896C9.10193 16.2829 8.98093 16.2308 8.8918 16.1402C8.80268 16.0497 8.75249 15.9279 8.75196 15.8008V15.6422C8.75196 15.6195 8.77468 15.3019 8.9791 14.9167C9.31982 14.2819 9.95582 13.8281 10.8644 13.5109C12.169 13.0768 13.7714 12.8115 14.8394 11.8785C15.6121 11.2211 15.8345 10.1929 15.8572 9.19566C16.2515 9.47851 16.7144 9.7648 16.7144 10.3142V15.8235ZM14.1442 9.19566C14.1442 9.69451 14.1357 10.2238 13.7718 10.5637C12.9078 11.3599 11.4147 11.5447 10.342 11.9012C8.68339 12.4455 7.86568 13.3978 7.47953 14.1002C7.41139 14.2365 7.34325 14.3724 7.29782 14.5087C7.29782 14.5314 7.28582 14.5314 7.28582 14.5537V10.3369C7.28582 9.83809 7.66125 9.54366 7.72939 9.49823L11.5458 7.00437C11.9774 6.70951 12.4317 7.00437 12.4317 7.00437L14.1442 8.13023V9.19566ZM18.4287 15.7327V10.3369C18.4287 10.0875 18.3605 8.8408 17.2021 8.0698L16.2858 7.42694V5.55409C16.2858 5.28194 16.021 5.14309 15.7711 5.14309H15.0772C14.8047 5.14309 14.5715 5.28194 14.5715 5.55409V6.29423L13.4084 5.55409C12.7042 5.10066 11.5912 4.91894 10.6141 5.55409L6.7981 8.04794C6.57096 8.1838 5.57153 8.93209 5.57153 10.3151V15.7108C5.57153 16.2319 5.6851 16.6627 5.93496 17.0252C6.11668 17.3201 6.38925 17.5468 6.70725 17.7054C7.2751 17.9775 7.82025 18.0002 7.84296 18.0002H16.18C16.2027 18.0002 16.7478 18.0002 17.3157 17.7054C17.6564 17.5468 17.9062 17.3201 18.1107 17.0252C18.3151 16.6854 18.4287 16.2542 18.4287 15.7327Z" fill="white"/>
</g>
<defs>
<clipPath id="clip0_31_16473">
<rect width="24" height="24" fill="white"/>
</clipPath>
</defs>
</svg>

<svg xmlns="http://www.w3.org/2000/svg" width="24" height="24" fill="none" viewBox="0 0 24 24"><g clip-path="url(#a)"><path fill="#38A6FA" d="M0 0h24v24H0z"/><path fill="#fff" d="M16.714 15.824c0 .249-.239.461-.489.461H9.23a.487.487 0 0 1-.477-.484v-.159c0-.022.023-.34.227-.725.34-.635.977-1.089 1.885-1.406 1.305-.434 2.907-.7 3.975-1.632.773-.658.995-1.686 1.018-2.683.395.283.857.569.857 1.118zm-2.57-6.628c0 .499-.008 1.028-.372 1.368-.864.796-2.357.98-3.43 1.337-1.659.544-2.476 1.497-2.862 2.2-.069.135-.137.271-.182.408 0 .022-.012.022-.012.045v-4.217c0-.499.375-.793.443-.839l3.817-2.494c.431-.294.886 0 .886 0l1.712 1.126zm4.285 6.537v-5.396c0-.25-.069-1.496-1.227-2.267l-.916-.643V5.554c0-.272-.265-.41-.515-.41h-.694c-.272 0-.505.138-.505.41v.74l-1.164-.74c-.704-.453-1.817-.635-2.794 0L6.798 8.048c-.227.136-1.226.884-1.226 2.267v5.396c0 .52.113.952.363 1.314.182.295.454.522.772.68A3.1 3.1 0 0 0 7.843 18h8.337c.023 0 .568 0 1.136-.295.34-.158.59-.385.795-.68.204-.34.318-.77.318-1.292"/></g><defs><clipPath id="a"><path fill="#fff" d="M0 0h24v24H0z"/></clipPath></defs></svg>
